src/assets/icons/Instagram.svg

<svg width="24" height="24" viewBox="0 0 24 24" fill="none" xmlns="http://www.w3.org/2000/svg">
<path d="M7.8 2H16.2C19.4 2 22 4.6 22 7.8V16.2C22 17.7383 21.3889 19.2135 20.3012 20.3012C19.2135 21.3889 17.7383 22 16.2 22H7.8C4.6 22 2 19.4 2 16.2V7.8C2 6.26174 2.61107 4.78649 3.69878 3.69878C4.78649 2.61107 6.26174 2 7.8 2ZM7.6 4C6.64522 4 5.72955 4.37928 5.05442 5.05442C4.37928 5.72955 4 6.64522 4 7.6V16.4C4 18.39 5.61 20 7.6 20H16.4C17.3548 20 18.2705 19.6207 18.9456 18.9456C19.6207 18.2705 20 17.3548 20 16.4V7.6C20 5.61 18.39 4 16.4 4H7.6ZM17.25 5.5C17.5815 5.5 17.8995 5.6317 18.1339 5.86612C18.3683 6.10054 18.5 6.41848 18.5 6.75C18.5 7.08152 18.3683 7.39946 18.1339 7.63388C17.8995 7.8683 17.5815 8 17.25 8C16.9185 8 16.6005 7.8683 16.3661 7.63388C16.1317 7.39946 16 7.08152 16 6.75C16 6.41848 16.1317 6.10054 16.3661 5.86612C16.6005 5.6317 16.9185 5.5 17.25 5.5ZM12 7C13.3261 7 14.5979 7.52678 15.5355 8.46447C16.4732 9.40215 17 10.6739 17 12C17 13.3261 16.4732 14.5979 15.5355 15.5355C14.5979 16.4732 13.3261 17 12 17C10.6739 17 9.40215 16.4732 8.46447 15.5355C7.52678 14.5979 7 13.3261 7 12C7 10.6739 7.52678 9.40215 8.46447 8.46447C9.40215 7.52678 10.6739 7 12 7ZM12 9C11.2044 9 10.4413 9.31607 9.87868 9.87868C9.31607 10.4413 9 11.2044 9 12C9 12.7956 9.31607 13.5587 9.87868 14.1213C10.4413 14.6839 11.2044 15 12 15C12.7956 15 13.5587 14.6839 14.1213 14.1213C14.6839 13.5587 15 12.7956 15 12C15 11.2044 14.6839 10.4413 14.1213 9.87868C13.5587 9.31607 12.7956 9 12 9Z" fill="#1E6655"/>
</svg>

<?xml version="1.0" encoding="UTF-8"?>
<svg id="Layer_1" data-name="Layer 1" xmlns="http://www.w3.org/2000/svg" version="1.1" viewBox="0 0 24 24">
  <defs>
    <style>
      .cls-1 {
        fill: #fcfcfc;
        stroke-width: 0px;
      }
    </style>
  </defs>
  <path class="cls-1" d="M7.8,2h8.4c3.2,0,5.8,2.6,5.8,5.8v8.4c0,1.5-.6,3-1.7,4.1-1.1,1.1-2.6,1.7-4.1,1.7H7.8c-3.2,0-5.8-2.6-5.8-5.8V7.8c0-1.5.6-3,1.7-4.1,1.1-1.1,2.6-1.7,4.1-1.7ZM7.6,4c-1,0-1.9.4-2.5,1.1-.7.7-1.1,1.6-1.1,2.5v8.8c0,2,1.6,3.6,3.6,3.6h8.8c1,0,1.9-.4,2.5-1.1s1.1-1.6,1.1-2.5V7.6c0-2-1.6-3.6-3.6-3.6H7.6ZM17.2,5.5c.3,0,.6.1.9.4.2.2.4.6.4.9s-.1.6-.4.9c-.2.2-.6.4-.9.4s-.6-.1-.9-.4c-.2-.2-.4-.6-.4-.9s.1-.6.4-.9c.2-.2.6-.4.9-.4ZM12,7c1.3,0,2.6.5,3.5,1.5.9.9,1.5,2.2,1.5,3.5s-.5,2.6-1.5,3.5c-.9.9-2.2,1.5-3.5,1.5s-2.6-.5-3.5-1.5c-.9-.9-1.5-2.2-1.5-3.5s.5-2.6,1.5-3.5c.9-.9,2.2-1.5,3.5-1.5ZM12,9c-.8,0-1.6.3-2.1.9-.6.6-.9,1.3-.9,2.1s.3,1.6.9,2.1c.6.6,1.3.9,2.1.9s1.6-.3,2.1-.9.9-1.3.9-2.1-.3-1.6-.9-2.1c-.6-.6-1.3-.9-2.1-.9Z"/>
</svg>
